svg/color/lsilver.svg

<?xml version="1.0" encoding="UTF-8" ?>
<!DOCTYPE svg PUBLIC "-//W3C//DTD SVG 1.1//EN" "http://www.w3.org/Graphics/SVG/1.1/DTD/svg11.dtd">
<svg width="250pt" height="250pt" viewBox="0 0 250 250" version="1.1" xmlns="http://www.w3.org/2000/svg">
<g id="#ffffffff">
<path fill="#ffffff" opacity="1.00" d=" M 0.00 0.00 L 250.00 0.00 L 250.00 250.00 L 0.00 250.00 L 0.00 0.00 M 109.41 4.42 C 102.19 5.20 95.22 7.30 88.25 9.19 C 46.93 21.77 14.06 58.25 5.65 100.57 C 2.85 113.30 2.90 126.45 3.84 139.38 C 6.24 154.55 10.21 169.73 17.76 183.22 C 22.55 191.80 27.93 200.18 34.94 207.12 C 38.96 211.41 42.92 215.80 47.54 219.47 C 66.56 234.90 90.11 245.29 114.72 246.70 C 121.27 247.55 127.91 247.68 134.47 246.77 C 151.20 245.97 167.32 240.50 182.26 233.19 C 208.87 218.91 230.12 194.69 240.09 166.12 C 243.17 155.62 246.48 145.00 246.55 133.95 C 247.34 126.29 246.69 118.61 246.18 110.96 C 241.20 62.13 203.15 18.53 155.27 7.43 C 140.42 3.13 124.69 2.68 109.41 4.42 Z" />
<path fill="#ffffff" opacity="1.00" d=" M 112.41 20.53 C 134.65 17.95 157.75 22.49 177.10 33.85 C 201.31 47.67 219.57 71.56 226.38 98.61 C 231.10 116.56 230.89 135.81 225.71 153.64 C 217.67 182.61 196.39 207.46 169.13 220.08 C 159.16 224.88 148.34 227.75 137.41 229.26 C 129.97 229.98 122.46 229.75 115.00 229.55 C 91.60 227.46 69.06 217.14 52.11 200.88 C 33.20 183.05 21.42 157.93 19.80 131.99 C 18.36 111.15 23.26 89.92 33.87 71.91 C 50.09 43.77 80.07 24.00 112.41 20.53 M 115.39 25.42 C 99.09 26.87 83.20 32.52 69.56 41.54 C 49.10 55.00 33.92 76.23 27.90 99.97 C 21.88 122.61 24.39 147.32 34.61 168.38 C 44.58 189.25 62.03 206.44 83.12 215.96 C 104.53 225.89 129.53 227.70 152.20 221.22 C 176.83 214.26 198.52 197.44 211.28 175.24 C 224.32 152.92 228.29 125.41 221.70 100.38 C 214.91 72.75 195.53 48.56 170.08 35.83 C 153.36 27.19 134.11 23.63 115.39 25.42 Z" />
<path fill="#ffffff" opacity="1.00" d=" M 76.72 61.71 C 84.84 61.48 92.98 61.41 101.11 61.74 C 101.48 92.17 101.13 122.61 101.28 153.04 C 100.98 156.00 103.11 158.77 106.02 159.34 C 109.77 159.91 113.48 158.72 117.14 158.03 C 118.89 164.18 120.03 170.49 120.90 176.83 C 110.87 182.30 97.68 183.56 87.75 177.24 C 79.94 172.37 76.34 162.92 76.55 154.00 C 76.70 123.24 76.38 92.47 76.72 61.71 Z" />
<path fill="#ffffff" opacity="1.00" d=" M 199.33 87.19 C 201.11 87.21 202.88 87.20 204.65 87.17 C 204.07 89.52 203.57 91.89 203.13 94.27 C 202.77 94.41 202.07 94.69 201.72 94.84 C 201.52 92.13 200.91 89.45 199.33 87.19 Z" />
<path fill="#ffffff" opacity="1.00" d=" M 206.43 86.91 C 207.64 87.55 208.84 88.20 210.04 88.85 C 211.22 88.20 212.41 87.55 213.61 86.90 C 213.65 89.44 213.67 91.98 213.68 94.52 C 211.23 94.46 208.78 94.46 206.34 94.53 C 206.36 91.99 206.39 89.45 206.43 86.91 Z" />
<path fill="#ffffff" opacity="1.00" d=" M 114.80 96.98 C 122.72 96.79 130.79 96.11 138.65 97.21 C 141.45 100.85 142.32 105.60 144.26 109.72 C 148.26 118.99 151.48 128.59 155.99 137.63 C 162.15 125.27 167.10 112.32 172.71 99.70 C 173.41 98.34 174.20 96.66 176.02 96.86 C 183.38 96.49 190.77 96.67 198.14 96.93 C 197.48 98.97 196.80 101.00 196.00 102.99 C 181.92 135.60 167.75 168.18 153.78 200.84 C 153.28 203.02 150.74 202.59 149.06 202.72 C 142.29 202.69 135.53 202.68 128.76 202.66 C 132.73 190.87 138.50 179.76 143.17 168.24 C 144.23 166.09 143.05 163.84 142.27 161.82 C 135.07 145.29 128.09 128.67 120.93 112.12 C 118.87 107.08 116.41 102.20 114.80 96.98 Z" />
</g>
<g id="#a6a6a6ff">
<path fill="#a6a6a6" opacity="1.00" d=" M 109.41 4.42 C 124.69 2.68 140.42 3.13 155.27 7.43 C 203.15 18.53 241.20 62.13 246.18 110.96 C 246.69 118.61 247.34 126.29 246.55 133.95 C 246.48 145.00 243.17 155.62 240.09 166.12 C 230.12 194.69 208.87 218.91 182.26 233.19 C 167.32 240.50 151.20 245.97 134.47 246.77 C 127.91 247.68 121.27 247.55 114.72 246.70 C 90.11 245.29 66.56 234.90 47.54 219.47 C 42.92 215.80 38.96 211.41 34.94 207.12 C 27.93 200.18 22.55 191.80 17.76 183.22 C 10.21 169.73 6.24 154.55 3.84 139.38 C 2.90 126.45 2.85 113.30 5.65 100.57 C 14.06 58.25 46.93 21.77 88.25 9.19 C 95.22 7.30 102.19 5.20 109.41 4.42 M 112.41 20.53 C 80.07 24.00 50.09 43.77 33.87 71.91 C 23.26 89.92 18.36 111.15 19.80 131.99 C 21.42 157.93 33.20 183.05 52.11 200.88 C 69.06 217.14 91.60 227.46 115.00 229.55 C 122.46 229.75 129.97 229.98 137.41 229.26 C 148.34 227.75 159.16 224.88 169.13 220.08 C 196.39 207.46 217.67 182.61 225.71 153.64 C 230.89 135.81 231.10 116.56 226.38 98.61 C 219.57 71.56 201.31 47.67 177.10 33.85 C 157.75 22.49 134.65 17.95 112.41 20.53 Z" />
<path fill="#a6a6a6" opacity="1.00" d=" M 115.39 25.42 C 134.11 23.63 153.36 27.19 170.08 35.83 C 195.53 48.56 214.91 72.75 221.70 100.38 C 228.29 125.41 224.32 152.92 211.28 175.24 C 198.52 197.44 176.83 214.26 152.20 221.22 C 129.53 227.70 104.53 225.89 83.12 215.96 C 62.03 206.44 44.58 189.25 34.61 168.38 C 24.39 147.32 21.88 122.61 27.90 99.97 C 33.92 76.23 49.10 55.00 69.56 41.54 C 83.20 32.52 99.09 26.87 115.39 25.42 M 76.72 61.71 C 76.38 92.47 76.70 123.24 76.55 154.00 C 76.34 162.92 79.94 172.37 87.75 177.24 C 97.68 183.56 110.87 182.30 120.90 176.83 C 120.03 170.49 118.89 164.18 117.14 158.03 C 113.48 158.72 109.77 159.91 106.02 159.34 C 103.11 158.77 100.98 156.00 101.28 153.04 C 101.13 122.61 101.48 92.17 101.11 61.74 C 92.98 61.41 84.84 61.48 76.72 61.71 M 199.33 87.19 C 200.91 89.45 201.52 92.13 201.72 94.84 C 202.07 94.69 202.77 94.41 203.13 94.27 C 203.57 91.89 204.07 89.52 204.65 87.17 C 202.88 87.20 201.11 87.21 199.33 87.19 M 206.43 86.91 C 206.39 89.45 206.36 91.99 206.34 94.53 C 208.78 94.46 211.23 94.46 213.68 94.52 C 213.67 91.98 213.65 89.44 213.61 86.90 C 212.41 87.55 211.22 88.20 210.04 88.85 C 208.84 88.20 207.64 87.55 206.43 86.91 M 114.80 96.98 C 116.41 102.20 118.87 107.08 120.93 112.12 C 128.09 128.67 135.07 145.29 142.27 161.82 C 143.05 163.84 144.23 166.09 143.17 168.24 C 138.50 179.76 132.73 190.87 128.76 202.66 C 135.53 202.68 142.29 202.69 149.06 202.72 C 150.74 202.59 153.28 203.02 153.78 200.84 C 167.75 168.18 181.92 135.60 196.00 102.99 C 196.80 101.00 197.48 98.97 198.14 96.93 C 190.77 96.67 183.38 96.49 176.02 96.86 C 174.20 96.66 173.41 98.34 172.71 99.70 C 167.10 112.32 162.15 125.27 155.99 137.63 C 151.48 128.59 148.26 118.99 144.26 109.72 C 142.32 105.60 141.45 100.85 138.65 97.21 C 130.79 96.11 122.72 96.79 114.80 96.98 Z" />
</g>
</svg>

<?xml version="1.0" encoding="utf-8"?>
<!-- Generator: Adobe Illustrator 26.0.3, SVG Export Plug-In . SVG Version: 6.00 Build 0)  -->
<svg version="1.1" id="Layer_1" xmlns="http://www.w3.org/2000/svg" xmlns:xlink="http://www.w3.org/1999/xlink" x="0px" y="0px"
	 viewBox="0 0 250 250" style="enable-background:new 0 0 250 250;" xml:space="preserve">
<style type="text/css">
	.st0{fill:#FFFFFF;}
	.st1{fill:#A6A6A6;}
</style>
<g id="_x23_ffffffff">
	<path class="st0" d="M112.4,20.5c22.2-2.6,45.3,2,64.7,13.3c24.2,13.8,42.5,37.7,49.3,64.8c4.7,17.9,4.5,37.2-0.7,55
		c-8,29-29.3,53.8-56.6,66.4c-10,4.8-20.8,7.7-31.7,9.2c-7.4,0.7-15,0.5-22.4,0.3c-23.4-2.1-45.9-12.4-62.9-28.7
		c-18.9-17.8-30.7-43-32.3-68.9c-1.4-20.8,3.5-42.1,14.1-60.1C50.1,43.8,80.1,24,112.4,20.5 M115.4,25.4
		c-16.3,1.5-32.2,7.1-45.8,16.1C49.1,55,33.9,76.2,27.9,100c-6,22.6-3.5,47.4,6.7,68.4c10,20.9,27.4,38.1,48.5,47.6
		c21.4,9.9,46.4,11.7,69.1,5.3c24.6-7,46.3-23.8,59.1-46c13-22.3,17-49.8,10.4-74.9c-6.8-27.6-26.2-51.8-51.6-64.5
		C153.4,27.2,134.1,23.6,115.4,25.4z"/>
	<path class="st0" d="M76.7,61.7c8.1-0.2,16.3-0.3,24.4,0c0.4,30.4,0,60.9,0.2,91.3c-0.3,3,1.8,5.7,4.7,6.3
		c3.8,0.6,7.5-0.6,11.1-1.3c1.8,6.1,2.9,12.5,3.8,18.8c-10,5.5-23.2,6.7-33.2,0.4c-7.8-4.9-11.4-14.3-11.2-23.2
		C76.7,123.2,76.4,92.5,76.7,61.7z"/>
	<path class="st0" d="M199.3,87.2c1.8,0,3.6,0,5.3,0c-0.6,2.3-1.1,4.7-1.5,7.1c-0.4,0.1-1.1,0.4-1.4,0.6
		C201.5,92.1,200.9,89.4,199.3,87.2z"/>
	<path class="st0" d="M206.4,86.9c1.2,0.6,2.4,1.3,3.6,1.9c1.2-0.7,2.4-1.3,3.6-1.9c0,2.5,0.1,5.1,0.1,7.6c-2.4-0.1-4.9-0.1-7.3,0
		C206.4,92,206.4,89.4,206.4,86.9z"/>
	<path class="st0" d="M114.8,97c7.9-0.2,16-0.9,23.8,0.2c2.8,3.6,3.7,8.4,5.6,12.5c4,9.3,7.2,18.9,11.7,27.9
		c6.2-12.4,11.1-25.3,16.7-37.9c0.7-1.4,1.5-3,3.3-2.8c7.4-0.4,14.8-0.2,22.1,0.1c-0.7,2-1.3,4.1-2.1,6.1
		c-14.1,32.6-28.2,65.2-42.2,97.8c-0.5,2.2-3,1.8-4.7,1.9c-6.8,0-13.5,0-20.3-0.1c4-11.8,9.7-22.9,14.4-34.4
		c1.1-2.2-0.1-4.4-0.9-6.4c-7.2-16.5-14.2-33.2-21.3-49.7C118.9,107.1,116.4,102.2,114.8,97z"/>
</g>
<g id="_x23_a6a6a6ff">
	<path class="st1" d="M109.4,4.4c15.3-1.7,31-1.3,45.9,3c47.9,11.1,85.9,54.7,90.9,103.5c0.5,7.7,1.2,15.3,0.4,23
		c-0.1,11.1-3.4,21.7-6.5,32.2c-10,28.6-31.2,52.8-57.8,67.1c-14.9,7.3-31.1,12.8-47.8,13.6c-6.6,0.9-13.2,0.8-19.8-0.1
		c-24.6-1.4-48.2-11.8-67.2-27.2c-4.6-3.7-8.6-8.1-12.6-12.4c-7-6.9-12.4-15.3-17.2-23.9c-7.6-13.5-11.5-28.7-13.9-43.8
		c-0.9-12.9-1-26.1,1.8-38.8c8.4-42.3,41.3-78.8,82.6-91.4C95.2,7.3,102.2,5.2,109.4,4.4 M112.4,20.5C80.1,24,50.1,43.8,33.9,71.9
		c-10.6,18-15.5,39.2-14.1,60.1c1.6,25.9,13.4,51.1,32.3,68.9c16.9,16.3,39.5,26.6,62.9,28.7c7.5,0.2,15,0.4,22.4-0.3
		c10.9-1.5,21.8-4.4,31.7-9.2c27.3-12.6,48.5-37.5,56.6-66.4c5.2-17.8,5.4-37.1,0.7-55c-6.8-27.1-25.1-50.9-49.3-64.8
		C157.8,22.5,134.6,18,112.4,20.5z"/>
	<path class="st1" d="M115.4,25.4c18.7-1.8,38,1.8,54.7,10.4c25.4,12.7,44.8,36.9,51.6,64.5c6.6,25,2.6,52.5-10.4,74.9
		c-12.8,22.2-34.4,39-59.1,46c-22.7,6.5-47.7,4.7-69.1-5.3c-21.1-9.5-38.5-26.7-48.5-47.6c-10.2-21.1-12.7-45.8-6.7-68.4
		c6-23.7,21.2-45,41.7-58.4C83.2,32.5,99.1,26.9,115.4,25.4 M76.7,61.7c-0.3,30.8,0,61.5-0.2,92.3c-0.2,8.9,3.4,18.4,11.2,23.2
		c9.9,6.3,23.1,5.1,33.2-0.4c-0.9-6.3-2-12.7-3.8-18.8c-3.7,0.7-7.4,1.9-11.1,1.3c-2.9-0.6-5-3.3-4.7-6.3
		c-0.2-30.4,0.2-60.9-0.2-91.3C93,61.4,84.8,61.5,76.7,61.7 M199.3,87.2c1.6,2.3,2.2,4.9,2.4,7.6c0.4-0.1,1.1-0.4,1.4-0.6
		c0.4-2.4,0.9-4.8,1.5-7.1C202.9,87.2,201.1,87.2,199.3,87.2 M206.4,86.9c0,2.5-0.1,5.1-0.1,7.6c2.4-0.1,4.9-0.1,7.3,0
		c0-2.5,0-5.1-0.1-7.6c-1.2,0.7-2.4,1.3-3.6,1.9C208.8,88.2,207.6,87.6,206.4,86.9 M114.8,97c1.6,5.2,4.1,10.1,6.1,15.1
		c7.2,16.5,14.1,33.2,21.3,49.7c0.8,2,2,4.3,0.9,6.4c-4.7,11.5-10.4,22.6-14.4,34.4c6.8,0,13.5,0,20.3,0.1c1.7-0.1,4.2,0.3,4.7-1.9
		c14-32.7,28.1-65.2,42.2-97.8c0.8-2,1.5-4,2.1-6.1c-7.4-0.3-14.8-0.4-22.1-0.1c-1.8-0.2-2.6,1.5-3.3,2.8
		c-5.6,12.6-10.6,25.6-16.7,37.9c-4.5-9-7.7-18.6-11.7-27.9c-1.9-4.1-2.8-8.9-5.6-12.5C130.8,96.1,122.7,96.8,114.8,97z"/>
</g>
</svg>
